src/static/fuf-logo.svg

<svg height="110" viewBox="0 0 86 110" width="86" xmlns="http://www.w3.org/2000/svg"><g fill="#fff"><path d="m35.9814053 32.3832556v17.7251826h2.1961954c1.2416795 0 1.9828449-.641242 1.9828449-2.4112317v-12.9047421c0-1.7699896-.7411654-2.4081974-1.9828449-2.4081974h-2.1961954z"/><path d="m22.8022108 11.0483055v-2.44359724c0-1.77504682-.6036504-2.55181944-1.9848672-2.55181944h-1.8776864v7.62005858h1.5237875c1.4519966-.0010115 2.3387661-.6402306 2.3387661-2.6246419z"/><path d="m62.554156 76.5975986c1.2406683 0 2.0182348-.6766424 2.0182348-2.4476432v-13.3993277c0-1.7740354-.7785776-2.4476429-2.0182348-2.4476429-1.2426907 0-2.0222794.6736075-2.0222794 2.4476429v13.3993277c0 1.7710008.7805999 2.4476432 2.0222794 2.4476432z"/><path d="m85.9863071 30.4301984v-30.37706896h-85.9863071v26.32733256 4.048725 22.2745618 4.0537821 22.275573 4.052771 26.3263211h46.8734019v-26.32531h39.1129052v-30.3821258h-39.4324253v-22.2745618zm-15.1792292-27.92538037h4.8918937l4.0010796 14.85476507v-14.85476507h3.4742762v24.81626707h-4.0031018l-4.856504-17.97399256v17.97399256h-3.5076437zm-13.0042673.00101142h10.6351671v3.54503652h-6.7362125v6.91206263h5.3519623v3.5450365h-5.3519623v7.2660606h6.7362125v3.5450365h-10.6351671zm-25.5788003 0h5.7068723l3.9697344 24.81525565h-3.9353557l-.673419-4.5038653h-4.7826906l-.6734191 4.5038653h-3.5804456zm11.8353899 32.46565685v12.5487212c0 3.9678112-1.9120651 6.1312444-5.8110197 6.1312444h-6.1659298v-24.8132328h6.1659298c3.8989546 0 5.8110197 2.1614102 5.8110197 6.1332672zm-29.0186976-32.46565685h5.8807884c4.0415253 0 5.7776521 1.87922336 5.7776521 5.70948105v1.9469887c0 2.5538423-.8159897 4.2216783-2.5541388 5.0338507 1.9525107.8152067 2.5895287 2.6964529 2.5895287 5.2846836v3.8272234c0 1.203593.0343787 2.0895993.4246787 3.0130282h-3.9707455c-.2103171-.6371963-.3518767-1.0296283-.3518767-3.0494394v-3.8980231c0-2.3050323-.7805998-3.1556387-2.5521165-3.1556387h-1.3468381v10.1031012h-3.8979434v-24.81525565zm-12.18726644 0h10.31160244v3.54604794h-6.41365899v7.47744791h5.03244219v3.546048h-5.03244219v10.2436889h-3.89794345zm10.31160244 56.20981575h-6.41365899v7.477448h5.03244219v3.5460479h-5.03244219v10.2477345h-3.89794345v-24.8182897h10.31160244zm1.1344986-10.981016c0 3.9678112-1.9858783 6.2374437-5.81101966 6.2374437-3.8261525 0-5.81304196-2.2696325-5.81304196-6.2374437v-18.8964101h3.89996572v19.1421858c0 1.7710011.77655527 2.4112317 2.01924593 2.4112317 1.23965721 0 2.01924597-.6402306 2.01924597-2.4112317v-19.1421858h3.6866152v18.8964101zm4.64012 32.2532582h-3.8979434v-24.8193015h3.8979434zm1.4873865-26.3344127h-3.5056213v-24.8152556h4.8868381l4.0041131 14.8527421v-14.8527421h3.4742759v24.8152556h-4.0051242l-4.8544816-17.9719697zm14.2439246 26.331378h-4.0020908l-3.7927849-9.8917137-1.2042674 2.270644v7.6210697h-3.8969323v-24.8162668h3.8969323v10.8121085l5.1052442-10.8121085h3.8959212l-5.4197086 11.0619299zm36.1340874-24.8162668h4.8939159l4.0010796 14.854765v-14.854765h3.4773094v24.8182897h-4.007146l-4.856504-17.9760152v17.9760152h-3.509666v-24.8182897zm-14.1691003 5.8298404c0-3.9708455 2.0910369-6.2394666 5.9192117-6.2394666 3.8251414 0 5.9192116 2.2696325 5.9192116 6.2394666v12.9037304c0 3.9728684-2.0930591 6.2384555-5.9192116 6.2384555-3.8271637 0-5.9192117-2.2655871-5.9192117-6.2384555zm-6.5178063-5.8298404h3.8979434v24.8193015h-3.8979434zm-2.128449 0v3.5470593h-4.0779263v21.2712304h-3.8969323v-21.2712304h-4.0759041v-3.5470593zm-4.4641817-33.7683693v-18.89539857h3.9009769v19.14319717c0 1.7710012.7765553 2.4102203 2.0162125 2.4102203 1.2426907 0 2.0202571-.6392191 2.0202571-2.4102203v-19.14319717h3.6866152v18.89539857c0 3.9698341-1.9828448 6.2374438-5.8120308 6.2374438-3.8261525 0-5.8120309-2.2676097-5.8120309-6.2374438z"/><path d="m34.8822965 6.90147245-1.8776864 12.54872135h3.757395z"/></g></svg>

<?xml version="1.0" encoding="UTF-8"?>
<svg width="86px" height="110px" viewBox="0 0 86 110" version="1.1" xmlns="http://www.w3.org/2000/svg" xmlns:xlink="http://www.w3.org/1999/xlink">
    <title>fuf-logo</title>
    <desc>Created with Sketch.</desc>
    <defs></defs>
    <g id="Page-1" stroke="none" stroke-width="1" fill="none" fill-rule="evenodd">
        <g id="fuf-logo" fill-rule="nonzero" fill="#FFFFFF">
            <g id="FuF-Logo-Web-grau-01">
                <g id="Page-1">
                    <g id="FuF-Logo-Web-grau-01">
                        <g id="Ebene_1">
                            <g id="Group">
                                <path d="M35.9814053,32.3832556 L35.9814053,50.1084382 L38.1776007,50.1084382 C39.4192802,50.1084382 40.1604456,49.4671962 40.1604456,47.6972065 L40.1604456,34.7924644 C40.1604456,33.0224748 39.4192802,32.384267 38.1776007,32.384267 L35.9814053,32.384267 L35.9814053,32.3832556 Z" id="Shape"></path>
                                <path d="M22.8022108,11.0483055 L22.8022108,8.60470826 C22.8022108,6.82966144 22.1985604,6.05288882 20.8173436,6.05288882 L18.9396572,6.05288882 L18.9396572,13.6729474 L20.4634447,13.6729474 C21.9154413,13.6719359 22.8022108,13.0327168 22.8022108,11.0483055 Z" id="Shape"></path>
                                <path d="M62.554156,76.5975986 C63.7948243,76.5975986 64.5723908,75.9209562 64.5723908,74.1499554 L64.5723908,60.7506277 C64.5723908,58.9765923 63.7938132,58.3029848 62.554156,58.3029848 C61.3114653,58.3029848 60.5318766,58.9765923 60.5318766,60.7506277 L60.5318766,74.1499554 C60.5318766,75.9209562 61.3124765,76.5975986 62.554156,76.5975986 Z" id="Shape"></path>
                                <path d="M85.9863071,30.4301984 L85.9863071,0.0531294387 L0,0.0531294387 L0,26.380462 L0,30.429187 L0,52.7037488 L0,56.7575309 L0,79.0331039 L0,83.0858749 L0,109.412196 L46.8734019,109.412196 L46.8734019,83.086886 L85.9863071,83.086886 L85.9863071,52.7047602 L46.5538818,52.7047602 L46.5538818,30.4301984 L85.9863071,30.4301984 Z M70.8070779,2.50481803 L75.6989716,2.50481803 L79.7000512,17.3595831 L79.7000512,2.50481803 L83.1743274,2.50481803 L83.1743274,27.3210851 L79.1712256,27.3210851 L74.3147216,9.34709254 L74.3147216,27.3210851 L70.8070779,27.3210851 L70.8070779,2.50481803 Z M57.8028106,2.50582945 L68.4379777,2.50582945 L68.4379777,6.05086597 L61.7017652,6.05086597 L61.7017652,12.9629286 L67.0537275,12.9629286 L67.0537275,16.5079651 L61.7017652,16.5079651 L61.7017652,23.7740257 L68.4379777,23.7740257 L68.4379777,27.3190622 L57.8028106,27.3190622 L57.8028106,2.50582945 Z M32.2240103,2.50582945 L37.9308826,2.50582945 L41.900617,27.3210851 L37.9652613,27.3210851 L37.2918423,22.8172198 L32.5091517,22.8172198 L31.8357326,27.3210851 L28.255287,27.3210851 L32.2240103,2.50582945 Z M44.0594002,34.9714863 L44.0594002,47.5202075 C44.0594002,51.4880187 42.1473351,53.6514519 38.2483805,53.6514519 L32.0824507,53.6514519 L32.0824507,28.8382191 L38.2483805,28.8382191 C42.1473351,28.8382191 44.0594002,30.9996293 44.0594002,34.9714863 Z M15.0407026,2.50582945 L20.921491,2.50582945 C24.9630163,2.50582945 26.6991431,4.38505281 26.6991431,8.2153105 L26.6991431,10.1622992 C26.6991431,12.7161415 25.8831534,14.3839775 24.1450043,15.1961499 C26.097515,16.0113566 26.734533,17.8926028 26.734533,20.4808335 L26.734533,24.3080569 C26.734533,25.5116499 26.7689117,26.3976562 27.1592117,27.3210851 L23.1884662,27.3210851 C22.9781491,26.6838888 22.8365895,26.2914568 22.8365895,24.2716457 L22.8365895,20.3736226 C22.8365895,18.0685903 22.0559897,17.2179839 20.284473,17.2179839 L18.9376349,17.2179839 L18.9376349,27.3210851 L15.0396915,27.3210851 L15.0396915,2.50582945 L15.0407026,2.50582945 Z M2.85343616,2.50582945 L13.1650386,2.50582945 L13.1650386,6.05187739 L6.75137961,6.05187739 L6.75137961,13.5293253 L11.7838218,13.5293253 L11.7838218,17.0753733 L6.75137961,17.0753733 L6.75137961,27.3190622 L2.85343616,27.3190622 L2.85343616,2.50582945 Z M13.1650386,58.7156452 L6.75137961,58.7156452 L6.75137961,66.1930932 L11.7838218,66.1930932 L11.7838218,69.7391411 L6.75137961,69.7391411 L6.75137961,79.9868756 L2.85343616,79.9868756 L2.85343616,55.1685859 L13.1650386,55.1685859 L13.1650386,58.7156452 Z M14.2995372,47.7346292 C14.2995372,51.7024404 12.3136589,53.9720729 8.48851754,53.9720729 C4.66236504,53.9720729 2.67547558,51.7024404 2.67547558,47.7346292 L2.67547558,28.8382191 L6.5754413,28.8382191 L6.5754413,47.9804049 C6.5754413,49.751406 7.35199657,50.3916366 8.59468723,50.3916366 C9.83434444,50.3916366 10.6139332,49.751406 10.6139332,47.9804049 L10.6139332,28.8382191 L14.3005484,28.8382191 L14.3005484,47.7346292 L14.2995372,47.7346292 Z M18.9396572,79.9878874 L15.0417138,79.9878874 L15.0417138,55.1685859 L18.9396572,55.1685859 L18.9396572,79.9878874 Z M20.4270437,53.6534747 L16.9214224,53.6534747 L16.9214224,28.8382191 L21.8082605,28.8382191 L25.8123736,43.6909612 L25.8123736,28.8382191 L29.2866495,28.8382191 L29.2866495,53.6534747 L25.2815253,53.6534747 L20.4270437,35.681505 L20.4270437,53.6534747 Z M34.6709683,79.9848527 L30.6688775,79.9848527 L26.8760926,70.093139 L25.6718252,72.363783 L25.6718252,79.9848527 L21.7748929,79.9848527 L21.7748929,55.1685859 L25.6718252,55.1685859 L25.6718252,65.9806944 L30.7770694,55.1685859 L34.6729906,55.1685859 L29.253282,66.2305158 L34.6709683,79.9848527 Z M70.8050557,55.1685859 L75.6989716,55.1685859 L79.7000512,70.0233509 L79.7000512,55.1685859 L83.1773606,55.1685859 L83.1773606,79.9868756 L79.1702146,79.9868756 L74.3137106,62.0108604 L74.3137106,79.9868756 L70.8040446,79.9868756 L70.8040446,55.1685859 L70.8050557,55.1685859 Z M56.6359554,60.9984263 C56.6359554,57.0275808 58.7269923,54.7589597 62.5551671,54.7589597 C66.3803085,54.7589597 68.4743787,57.0285922 68.4743787,60.9984263 L68.4743787,73.9021567 C68.4743787,77.8750251 66.3813196,80.1406122 62.5551671,80.1406122 C58.7280034,80.1406122 56.6359554,77.8750251 56.6359554,73.9021567 L56.6359554,60.9984263 Z M50.1181491,55.1685859 L54.0160925,55.1685859 L54.0160925,79.9878874 L50.1181491,79.9878874 L50.1181491,55.1685859 Z M47.9897001,55.1685859 L47.9897001,58.7156452 L43.9117738,58.7156452 L43.9117738,79.9868756 L40.0148415,79.9868756 L40.0148415,58.7156452 L35.9389374,58.7156452 L35.9389374,55.1685859 L47.9897001,55.1685859 Z M43.5255184,21.4002166 L43.5255184,2.50481803 L47.4264953,2.50481803 L47.4264953,21.6480152 C47.4264953,23.4190164 48.2030506,24.0582355 49.4427078,24.0582355 C50.6853985,24.0582355 51.4629649,23.4190164 51.4629649,21.6480152 L51.4629649,2.50481803 L55.1495801,2.50481803 L55.1495801,21.4002166 C55.1495801,25.3700507 53.1667353,27.6376604 49.3375493,27.6376604 C45.5113968,27.6376604 43.5255184,25.3700507 43.5255184,21.4002166 Z" id="Shape"></path>
                                <polygon id="Shape" points="34.8822965 6.90147245 33.0046101 19.4501938 36.7620051 19.4501938"></polygon>
                            </g>
                        </g>
                    </g>
                </g>
            </g>
        </g>
    </g>
</svg>
